images/indikatorenset/4856.svg

<?xml version="1.0" standalone="no"?><!DOCTYPE svg PUBLIC "-//W3C//DTD SVG 1.1//EN" "http://www.w3.org/Graphics/SVG/1.1/DTD/svg11.dtd"><svg xmlns:xlink="http://www.w3.org/1999/xlink" version="1.1" class="highcharts-root" style="font-family:arial;font-size:12px;" xmlns="http://www.w3.org/2000/svg" width="485" height="415"><desc>Created with Highstock 5.0.14</desc><defs><clipPath id="highcharts-c9vkgw5-6"><rect x="0" y="0" width="260" height="278" fill="none"></rect></clipPath><clipPath id="highcharts-c9vkgw5-7"><rect x="0" y="0" width="260" height="278" fill="none"></rect></clipPath></defs><rect fill="#fbfbfb" class="highcharts-background" x="0" y="0" width="485" height="415" rx="0" ry="0"></rect><rect fill="none" class="highcharts-plot-background" x="53" y="72" width="260" height="278"></rect><g class="highcharts-pane-group"></g><g class="highcharts-grid highcharts-xaxis-grid "><path fill="none" class="highcharts-grid-line" d="M 117.5 72 L 117.5 350" opacity="1"></path><path fill="none" class="highcharts-grid-line" d="M 182.5 72 L 182.5 350" opacity="1"></path><path fill="none" class="highcharts-grid-line" d="M 247.5 72 L 247.5 350" opacity="1"></path><path fill="none" class="highcharts-grid-line" d="M 312.5 72 L 312.5 350" opacity="1"></path><path fill="none" class="highcharts-grid-line" d="M 52.5 72 L 52.5 350" opacity="1"></path></g><g class="highcharts-grid highcharts-yaxis-grid "><path fill="none" stroke="#B9CFD7" stroke-width="0.5" class="highcharts-grid-line" d="M 53 350.25 L 313 350.25" opacity="1"></path><path fill="none" stroke="#B9CFD7" stroke-width="0.5" class="highcharts-grid-line" d="M 53 322.25 L 313 322.25" opacity="1"></path><path fill="none" stroke="#B9CFD7" stroke-width="0.5" class="highcharts-grid-line" d="M 53 294.25 L 313 294.25" opacity="1"></path><path fill="none" stroke="#B9CFD7" stroke-width="0.5" class="highcharts-grid-line" d="M 53 267.25 L 313 267.25" opacity="1"></path><path fill="none" stroke="#B9CFD7" stroke-width="0.5" class="highcharts-grid-line" d="M 53 239.25 L 313 239.25" opacity="1"></path><path fill="none" stroke="#B9CFD7" stroke-width="0.5" class="highcharts-grid-line" d="M 53 211.25 L 313 211.25" opacity="1"></path><path fill="none" stroke="#B9CFD7" stroke-width="0.5" class="highcharts-grid-line" d="M 53 183.25 L 313 183.25" opacity="1"></path><path fill="none" stroke="#B9CFD7" stroke-width="0.5" class="highcharts-grid-line" d="M 53 155.25 L 313 155.25" opacity="1"></path><path fill="none" stroke="#B9CFD7" stroke-width="0.5" class="highcharts-grid-line" d="M 53 128.25 L 313 128.25" opacity="1"></path><path fill="none" stroke="#B9CFD7" stroke-width="0.5" class="highcharts-grid-line" d="M 53 100.25 L 313 100.25" opacity="1"></path><path fill="none" stroke="#B9CFD7" stroke-width="0.5" class="highcharts-grid-line" d="M 53 71.75 L 313 71.75" opacity="1"></path></g><rect fill="none" class="highcharts-plot-border" x="53" y="72" width="260" height="278"></rect><g class="highcharts-axis highcharts-xaxis "><path fill="none" class="highcharts-tick" stroke="#FFFFFF" stroke-width="1" d="M 117.5 350 L 117.5 360" opacity="1"></path><path fill="none" class="highcharts-tick" stroke="#FFFFFF" stroke-width="1" d="M 182.5 350 L 182.5 360" opacity="1"></path><path fill="none" class="highcharts-tick" stroke="#FFFFFF" stroke-width="1" d="M 247.5 350 L 247.5 360" opacity="1"></path><path fill="none" class="highcharts-tick" stroke="#FFFFFF" stroke-width="1" d="M 313.5 350 L 313.5 360" opacity="1"></path><path fill="none" class="highcharts-tick" stroke="#FFFFFF" stroke-width="1" d="M 52.5 350 L 52.5 360" opacity="1"></path><path fill="none" class="highcharts-axis-line" stroke="#B9CFD7" stroke-width="0.5" d="M 53 350.25 L 313 350.25"></path></g><g class="highcharts-axis highcharts-yaxis "><path fill="none" class="highcharts-axis-line" d="M 53 72 L 53 350"></path></g><g class="highcharts-series-group"><g class="highcharts-series highcharts-series-0 highcharts-column-series highcharts-color-undefined " transform="translate(53,72) scale(1 1)" clip-path="url(#highcharts-c9vkgw5-7)"><rect x="17" y="202" width="32" height="77" fill="#256370" class="highcharts-point"></rect><rect x="82" y="221" width="32" height="58" fill="#256370" class="highcharts-point"></rect><rect x="147" y="184" width="32" height="95" fill="#256370" class="highcharts-point"></rect><rect x="212" y="187" width="32" height="92" fill="#256370" class="highcharts-point"></rect></g><g class="highcharts-markers highcharts-series-0 highcharts-column-series highcharts-color-undefined " transform="translate(53,72) scale(1 1)" clip-path="none"></g><g class="highcharts-series highcharts-series-1 highcharts-column-series highcharts-color-undefined " transform="translate(53,72) scale(1 1)" clip-path="url(#highcharts-c9vkgw5-7)"><rect x="17" y="93" width="32" height="109" fill="#71A3B5" class="highcharts-point"></rect><rect x="82" y="105" width="32" height="116" fill="#71A3B5" class="highcharts-point"></rect><rect x="147" y="83" width="32" height="101" fill="#71A3B5" class="highcharts-point"></rect><rect x="212" y="64" width="32" height="123" fill="#71A3B5" class="highcharts-point"></rect></g><g class="highcharts-markers highcharts-series-1 highcharts-column-series highcharts-color-undefined " transform="translate(53,72) scale(1 1)" clip-path="none"></g><g class="highcharts-series highcharts-series-2 highcharts-column-series highcharts-color-undefined " transform="translate(53,72) scale(1 1)" clip-path="url(#highcharts-c9vkgw5-7)"><rect x="17" y="79" width="32" height="14" fill="#C8C8C8" class="highcharts-point"></rect><rect x="82" y="91" width="32" height="14" fill="#C8C8C8" class="highcharts-point"></rect><rect x="147" y="66" width="32" height="17" fill="#C8C8C8" class="highcharts-point"></rect><rect x="212" y="54" width="32" height="10" fill="#C8C8C8" class="highcharts-point"></rect></g><g class="highcharts-markers highcharts-series-2 highcharts-column-series highcharts-color-undefined " transform="translate(53,72) scale(1 1)" clip-path="none"></g><g class="highcharts-series highcharts-series-3 highcharts-column-series highcharts-color-undefined " transform="translate(53,72) scale(1 1)" clip-path="url(#highcharts-c9vkgw5-7)"><rect x="17" y="27" width="32" height="52" fill="#FFBB58" class="highcharts-point"></rect><rect x="82" y="28" width="32" height="63" fill="#FFBB58" class="highcharts-point"></rect><rect x="147" y="23" width="32" height="43" fill="#FFBB58" class="highcharts-point"></rect><rect x="212" y="16" width="32" height="38" fill="#FFBB58" class="highcharts-point"></rect></g><g class="highcharts-markers highcharts-series-3 highcharts-column-series highcharts-color-undefined " transform="translate(53,72) scale(1 1)" clip-path="none"></g><g class="highcharts-series highcharts-series-4 highcharts-column-series highcharts-color-undefined " transform="translate(53,72) scale(1 1)" clip-path="url(#highcharts-c9vkgw5-7)"><rect x="17" y="0" width="32" height="27" fill="#FF8028" class="highcharts-point"></rect><rect x="82" y="0" width="32" height="28" fill="#FF8028" class="highcharts-point"></rect><rect x="147" y="0" width="32" height="23" fill="#FF8028" class="highcharts-point"></rect><rect x="212" y="0" width="32" height="16" fill="#FF8028" class="highcharts-point"></rect></g><g class="highcharts-markers highcharts-series-4 highcharts-column-series highcharts-color-undefined " transform="translate(53,72) scale(1 1)" clip-path="none"></g></g><text x="10" text-anchor="start" class="highcharts-title" style="color:#000000;font-size:14px;font-weight:bold;fill:#000000;" y="21"><tspan>Ohne die Menschen aus dem Ausland würden wir nicht so gut</tspan><tspan dy="17" x="10">leben.</tspan><title>Ohne die Menschen aus dem Ausland würden wir nicht so gut leben.</title></text><text x="10" text-anchor="start" class="highcharts-subtitle" style="color:#000000;font-size:12px;fill:#000000;" y="57"><tspan>«Ohne die Menschen aus dem Ausland würden wir nicht so gut leben.»</tspan></text><g class="highcharts-legend" transform="translate(325,137)"><rect fill="none" class="highcharts-legend-box" rx="0" ry="0" x="0" y="0" width="150" height="121" visibility="visible"></rect><g><g><g class="highcharts-legend-item highcharts-column-series highcharts-color-undefined highcharts-series-4" transform="translate(8,3)"><text x="21" style="color:#333333;font-size:12px;font-weight:normal;cursor:pointer;fill:#333333;" text-anchor="start" y="15"><tspan>Stimme überhaupt …</tspan><title>Stimme überhaupt nicht zu</title></text><rect x="2" y="4" width="12" height="12" fill="#FF8028" class="highcharts-point"></rect></g><g class="highcharts-legend-item highcharts-column-series highcharts-color-undefined highcharts-series-3" transform="translate(8,22)"><text x="21" y="15" style="color:#333333;font-size:12px;font-weight:normal;cursor:pointer;fill:#333333;" text-anchor="start"><tspan>Stimme eher nicht zu</tspan></text><rect x="2" y="4" width="12" height="12" fill="#FFBB58" class="highcharts-point"></rect></g><g class="highcharts-legend-item highcharts-column-series highcharts-color-undefined highcharts-series-2" transform="translate(8,41)"><text x="21" y="15" style="color:#333333;font-size:12px;font-weight:normal;cursor:pointer;fill:#333333;" text-anchor="start"><tspan>Weiss nicht /</tspan><tspan x="21" dy="15">keine Angabe</tspan></text><rect x="2" y="4" width="12" height="12" fill="#C8C8C8" class="highcharts-point"></rect></g><g class="highcharts-legend-item highcharts-column-series highcharts-color-undefined highcharts-series-1" transform="translate(8,75)"><text x="21" y="15" style="color:#333333;font-size:12px;font-weight:normal;cursor:pointer;fill:#333333;" text-anchor="start"><tspan>Stimme eher zu</tspan></text><rect x="2" y="4" width="12" height="12" fill="#71A3B5" class="highcharts-point"></rect></g><g class="highcharts-legend-item highcharts-column-series highcharts-color-undefined highcharts-series-0" transform="translate(8,94)"><text x="21" y="15" style="color:#333333;font-size:12px;font-weight:normal;cursor:pointer;fill:#333333;" text-anchor="start"><tspan>Stimme sehr zu</tspan></text><rect x="2" y="4" width="12" height="12" fill="#256370" class="highcharts-point"></rect></g></g></g></g><g class="highcharts-axis-labels highcharts-xaxis-labels "><text x="85.5" style="color:#000000;cursor:default;font-size:11px;fill:#000000;" text-anchor="middle" transform="translate(0,0)" y="369" opacity="1"><tspan>2005</tspan><tspan x="85.5" dy="14">(N=1510)</tspan></text><text x="150.5" style="color:#000000;cursor:default;font-size:11px;fill:#000000;" text-anchor="middle" transform="translate(0,0)" y="369" opacity="1"><tspan>2007</tspan><tspan x="150.5" dy="14">(N=1509)</tspan></text><text x="215.5" style="color:#000000;cursor:default;font-size:11px;fill:#000000;" text-anchor="middle" transform="translate(0,0)" y="369" opacity="1"><tspan>2011</tspan><tspan x="215.5" dy="14">(N=1516)</tspan></text><text x="280.5" style="color:#000000;cursor:default;font-size:11px;fill:#000000;" text-anchor="middle" transform="translate(0,0)" y="369" opacity="1"><tspan>2015</tspan><tspan x="280.5" dy="14">(N=1506)</tspan></text></g><g class="highcharts-axis-labels highcharts-yaxis-labels "><text x="38" style="color:#000000;cursor:default;font-size:11px;fill:#000000;" text-anchor="end" transform="translate(0,0)" y="355" opacity="1"><tspan>0%</tspan></text><text x="38" style="color:#000000;cursor:default;font-size:11px;fill:#000000;" text-anchor="end" transform="translate(0,0)" y="327" opacity="1"><tspan>10%</tspan></text><text x="38" style="color:#000000;cursor:default;font-size:11px;fill:#000000;" text-anchor="end" transform="translate(0,0)" y="299" opacity="1"><tspan>20%</tspan></text><text x="38" style="color:#000000;cursor:default;font-size:11px;fill:#000000;" text-anchor="end" transform="translate(0,0)" y="271" opacity="1"><tspan>30%</tspan></text><text x="38" style="color:#000000;cursor:default;font-size:11px;fill:#000000;" text-anchor="end" transform="translate(0,0)" y="243" opacity="1"><tspan>40%</tspan></text><text x="38" style="color:#000000;cursor:default;font-size:11px;fill:#000000;" text-anchor="end" transform="translate(0,0)" y="216" opacity="1"><tspan>50%</tspan></text><text x="38" style="color:#000000;cursor:default;font-size:11px;fill:#000000;" text-anchor="end" transform="translate(0,0)" y="188" opacity="1"><tspan>60%</tspan></text><text x="38" style="color:#000000;cursor:default;font-size:11px;fill:#000000;" text-anchor="end" transform="translate(0,0)" y="160" opacity="1"><tspan>70%</tspan></text><text x="38" style="color:#000000;cursor:default;font-size:11px;fill:#000000;" text-anchor="end" transform="translate(0,0)" y="132" opacity="1"><tspan>80%</tspan></text><text x="38" style="color:#000000;cursor:default;font-size:11px;fill:#000000;" text-anchor="end" transform="translate(0,0)" y="104" opacity="1"><tspan>90%</tspan></text><text x="38" style="color:#000000;cursor:default;font-size:11px;fill:#000000;" text-anchor="end" transform="translate(0,0)" y="77" opacity="1"><tspan>100%</tspan></text></g><text x="10" class="highcharts-credits" text-anchor="start" style="cursor:default;color:#000000;font-size:10px;fill:#000000;" y="400"><tspan>Quelle: Statistisches Amt Basel-Stadt, kantonale Bevölkerungsbefragung: F18c</tspan></text></svg>

<svg class="highcharts-root" xmlns="http://www.w3.org/2000/svg" width="485" height="415" font-family="arial" font-size="12">
    <defs>
        <clipPath id="a">
            <path fill="none" d="M0 0h260v278H0z"/>
        </clipPath>
    </defs>
    <rect fill="#fbfbfb" class="highcharts-background" width="485" height="415" rx="0" ry="0"/>
    <path fill="none" class="highcharts-plot-background" d="M53 72h260v278H53z"/>
    <g class="highcharts-grid highcharts-xaxis-grid">
        <path fill="none" class="highcharts-grid-line" d="M117.5 72v278m65-278v278m65-278v278m65-278v278M52.5 72v278"/>
    </g>
    <g class="highcharts-grid highcharts-yaxis-grid">
        <path fill="none" stroke="#B9CFD7" stroke-width=".5" class="highcharts-grid-line" d="M53 350.25h260m-260-28h260m-260-28h260m-260-27h260m-260-28h260m-260-28h260m-260-28h260m-260-28h260m-260-27h260m-260-28h260M53 71.75h260"/>
    </g>
    <path fill="none" class="highcharts-plot-border" d="M53 72h260v278H53z"/>
    <g class="highcharts-axis highcharts-xaxis">
        <path fill="none" class="highcharts-tick" stroke="#FFF" d="M117.5 350v10m65-10v10m65-10v10m66-10v10m-261-10v10"/>
        <path fill="none" class="highcharts-axis-line" stroke="#B9CFD7" stroke-width=".5" d="M53 350.25h260"/>
    </g>
    <g class="highcharts-axis highcharts-yaxis">
        <path fill="none" class="highcharts-axis-line" d="M53 72v278"/>
    </g>
    <g class="highcharts-series-group">
        <g class="highcharts-series highcharts-series-0 highcharts-column-series highcharts-color-undefined" transform="translate(53 72)" clip-path="url(#a)">
            <path fill="#256370" class="highcharts-point" d="M17 202h32v77H17zm65 19h32v58H82zm65-37h32v95h-32zm65 3h32v92h-32z"/>
        </g>
        <g class="highcharts-series highcharts-series-1 highcharts-column-series highcharts-color-undefined" transform="translate(53 72)" clip-path="url(#a)">
            <path fill="#71A3B5" class="highcharts-point" d="M17 93h32v109H17zm65 12h32v116H82zm65-22h32v101h-32zm65-19h32v123h-32z"/>
        </g>
        <g class="highcharts-series highcharts-series-2 highcharts-column-series highcharts-color-undefined" transform="translate(53 72)" clip-path="url(#a)">
            <path fill="#C8C8C8" class="highcharts-point" d="M17 79h32v14H17zm65 12h32v14H82zm65-25h32v17h-32zm65-12h32v10h-32z"/>
        </g>
        <g class="highcharts-series highcharts-series-3 highcharts-column-series highcharts-color-undefined" transform="translate(53 72)" clip-path="url(#a)">
            <path fill="#FFBB58" class="highcharts-point" d="M17 27h32v52H17zm65 1h32v63H82zm65-5h32v43h-32zm65-7h32v38h-32z"/>
        </g>
        <g class="highcharts-series highcharts-series-4 highcharts-column-series highcharts-color-undefined" transform="translate(53 72)" clip-path="url(#a)">
            <path fill="#FF8028" class="highcharts-point" d="M17 0h32v27H17zm65 0h32v28H82zm65 0h32v23h-32zm65 0h32v16h-32z"/>
        </g>
    </g>
    <text x="10" class="highcharts-title" y="21" color="#000" font-size="14" font-weight="700">
        <tspan>Ohne die Menschen aus dem Ausland würden wir nicht so gut</tspan><tspan dy="17" x="10">leben.</tspan><title>Ohne die Menschen aus dem Ausland würden wir nicht so gut leben.</title>
    </text>
    <text x="10" class="highcharts-subtitle" y="57" color="#000">
        <tspan>«Ohne die Menschen aus dem Ausland würden wir nicht so gut leben.»</tspan>
    </text>
    <g class="highcharts-legend" transform="translate(325 137)">
        <rect fill="none" class="highcharts-legend-box" rx="0" ry="0" width="150" height="121"/>
        <g class="highcharts-legend-item highcharts-column-series highcharts-color-undefined highcharts-series-4">
            <text x="21" y="15" color="#333" font-weight="400" cursor="pointer" fill="#333" transform="translate(8 3)">
                <tspan>Stimme überhaupt …</tspan><title>Stimme überhaupt nicht zu</title>
            </text>
            <path fill="#FF8028" class="highcharts-point" d="M10 7h12v12H10z"/>
        </g>
        <g class="highcharts-legend-item highcharts-column-series highcharts-color-undefined highcharts-series-3">
            <text x="21" y="15" color="#333" font-weight="400" cursor="pointer" fill="#333" transform="translate(8 22)">
                <tspan>Stimme eher nicht zu</tspan>
            </text>
            <path fill="#FFBB58" class="highcharts-point" d="M10 26h12v12H10z"/>
        </g>
        <g class="highcharts-legend-item highcharts-column-series highcharts-color-undefined highcharts-series-2">
            <text x="21" y="15" color="#333" font-weight="400" cursor="pointer" fill="#333" transform="translate(8 41)">
                <tspan>Weiss nicht /</tspan><tspan x="21" dy="15">keine Angabe</tspan>
            </text>
            <path fill="#C8C8C8" class="highcharts-point" d="M10 45h12v12H10z"/>
        </g>
        <g class="highcharts-legend-item highcharts-column-series highcharts-color-undefined highcharts-series-1">
            <text x="21" y="15" color="#333" font-weight="400" cursor="pointer" fill="#333" transform="translate(8 75)">
                <tspan>Stimme eher zu</tspan>
            </text>
            <path fill="#71A3B5" class="highcharts-point" d="M10 79h12v12H10z"/>
        </g>
        <g class="highcharts-legend-item highcharts-column-series highcharts-color-undefined highcharts-series-0">
            <text x="21" y="15" color="#333" font-weight="400" cursor="pointer" fill="#333" transform="translate(8 94)">
                <tspan>Stimme sehr zu</tspan>
            </text>
            <path fill="#256370" class="highcharts-point" d="M10 98h12v12H10z"/>
        </g>
    </g>
    <g class="highcharts-axis-labels highcharts-xaxis-labels" text-anchor="middle" color="#000" cursor="default" font-size="11">
        <text x="85.5" y="369">
            <tspan>2005</tspan><tspan x="85.5" dy="14">(N=1510)</tspan>
        </text>
        <text x="150.5" y="369">
            <tspan>2007</tspan><tspan x="150.5" dy="14">(N=1509)</tspan>
        </text>
        <text x="215.5" y="369">
            <tspan>2011</tspan><tspan x="215.5" dy="14">(N=1516)</tspan>
        </text>
        <text x="280.5" y="369">
            <tspan>2015</tspan><tspan x="280.5" dy="14">(N=1506)</tspan>
        </text>
    </g>
    <g class="highcharts-axis-labels highcharts-yaxis-labels" text-anchor="end" color="#000" cursor="default" font-size="11">
        <text x="38" y="355">
            <tspan>0%</tspan>
        </text>
        <text x="38" y="327">
            <tspan>10%</tspan>
        </text>
        <text x="38" y="299">
            <tspan>20%</tspan>
        </text>
        <text x="38" y="271">
            <tspan>30%</tspan>
        </text>
        <text x="38" y="243">
            <tspan>40%</tspan>
        </text>
        <text x="38" y="216">
            <tspan>50%</tspan>
        </text>
        <text x="38" y="188">
            <tspan>60%</tspan>
        </text>
        <text x="38" y="160">
            <tspan>70%</tspan>
        </text>
        <text x="38" y="132">
            <tspan>80%</tspan>
        </text>
        <text x="38" y="104">
            <tspan>90%</tspan>
        </text>
        <text x="38" y="77">
            <tspan>100%</tspan>
        </text>
    </g>
    <text x="10" class="highcharts-credits" y="400" cursor="default" color="#000" font-size="10">
        <tspan>Quelle: Statistisches Amt Basel-Stadt, kantonale Bevölkerungsbefragung: F18c</tspan>
    </text>
</svg>
